X:1
T:Breton Gavotte 1
M:4/4
L:1/8
Z:robin.beech@mcgill.ca
R:gavotte
K:D
B2 cd ef df | ec ed B2 B2 | B2 cd ef df | ec ed | B2 B2 |:
fg fe de f2 | (3fed cd  ef df | B2 cd ef df | ec ed B2 B2 :|
